X:1
T:Title
%%score { ( 1 3 ) | ( 2 4 ) }
L:1/8
Q:1/4=140
M:4/4
K:D
V:1 treble nm="Grand Piano"
V:3 treble 
V:2 bass 
V:4 bass 
V:1
 [FA]6 [FA]2 | B2 A6 | G6 G2 | F2 D6 | [B,DG]6 [B,DG]2 | [A,DF]2 [A,DF]2 [A,DF]2 [A,DF]2 | %6
w: Per\-Olof~Karlsson *||||||
 [DF]4- [^G,DF]4 | [A,CE]4 [G,B,D]2 [G,CE]2 | [A,DF]2 [DFA]2 [CFA]2 [CFA]2 | %9
w: |||
 [=CEB]2 [CEA]4 [CEA]2 | [B,DA]2 [B,DA]2 [A,CF]2[K:bass] [G,CE]2 | [F,D]4- [F,=CD]4 | %12
w: |||
 [G,B,E]6 [B,DE]2 | [A,CE]2 [A,B,D]2 [G,CF]2 [G,CE]2 | [G,E]8 | [F,A,D]8 |] %16
w: ||||
V:2
 [D,D]6 [D,D]2 | [F,CE]2 [F,CE]6 | [G,B,D]6 [G,B,D]2 | [D,A,D]2 [D,F,A,]6 | G,,6 G,,2 | %5
 D,2 C,2 B,,2 A,,2 | ^G,,4 B,,4 | A,,4 A,,2 A,,2 | D,2 D,2 D,2 D,2 | F,2 F,4 D,2 | %10
 G,,2 G,,2 A,,2 ^A,,2 | B,,4 A,,4 | G,,6 G,,2 | A,,2 A,,2 A,,2 A,,2 | z2 D2 C4 | D,8 |] %16
V:3
 x8 | x8 | x8 | x8 | x8 | x8 | B,4 z4 | x8 | x8 | x8 | x6[K:bass] x2 | B,4 z4 | x8 | x8 | %14
 B,2 z2 z4 | x8 |] %16
V:4
 x8 | x8 | x8 | x8 | x8 | x8 | x8 | x8 | x8 | x8 | x8 | x8 | x8 | x8 | A,,8 | x8 |] %16

